X:239
T:Lord of the Dance
M:4/4
L:1/8
K:G
D2 | G2 GG BABc | d2 dd B2 BB | A2 A2 A2 AB | cBAG F2 DD | 
G2 GG BABc | d2 dd B2 BB | A2 A2 B2 BA | G2 G2 G4 || 
d4 B3 A | BcBA G4 | B2 Bc d2 cB | A2 A2 A2 D2 | 
G2 G2 G3 A | BABc d2 cB | A2 A2 B2 BA | G2 G2 G4 || 

